(LATIHAN CAM1)
(T1 D=5. CR=0. - ZMIN=-2. - FLAT END MILL)
G0 G90 G94 G17
G21
G53 G0 Z0.

(FACE10)
T1
M3 S5000
G90 G94 G17
G55
M8
G0 X53.25 Y0.872
Z15.
G0 Z5.
G1 Z0.5 F333.
X53.242 Z0.413 F1000.
X53.22 Z0.329
X53.183 Z0.25
X53.133 Z0.179
X53.071 Z0.117
X53. Z0.067
X52.921 Z0.03
X52.837 Z0.008
X52.75 Z0.
X52.51
X36.632
G2 X34.964 Y2.54 R1.669
X36.632 Y4.209 R1.669
G1 X38.341
X52.51
G3 X54.178 Y5.878 R1.668
X52.51 Y7.546 R1.668
G1 X41.678
G2 X40.01 Y9.215 R1.668
X41.678 Y10.883 R1.668
G1 X45.015
X52.51
X52.597 Z0.008
X52.681 Z0.03
X52.76 Z0.067
X52.831 Z0.117
X52.893 Z0.179
X52.943 Z0.25
X52.98 Z0.329
X53.002 Z0.413
X53.01 Z0.5
G0 Z5.
X31.382 Y0.872
G1 Z0.5 F333.
X31.374 Z0.413 F1000.
X31.352 Z0.329
X31.315 Z0.25
X31.265 Z0.179
X31.203 Z0.117
X31.132 Z0.067
X31.053 Z0.03
X30.969 Z0.008
X30.882 Z0.
X19.118
X13.368
X-2.51
G2 X-4.179 Y2.54 R1.669
X-2.51 Y4.209 R1.669
G1 X11.659
X15.781
X34.219
X37.556
G3 X39.224 Y5.878 R1.668
X37.556 Y7.546 R1.668
G1 X12.444
X8.322
X-2.51
G2 X-4.179 Y9.215 R1.668
X-2.51 Y10.883 R1.668
G1 X4.985
X9.107
X40.893
X44.23
G3 X45.898 Y12.552 R1.668
X44.23 Y14.22 R1.668
G1 X5.77
X2.433
G2 X0.765 Y15.889 R1.668
X2.433 Y17.557 R1.668
G1 X47.567
X50.904
G3 X52.572 Y19.226 R1.668
X50.904 Y20.894 R1.668
G1 X-0.904
X-2.51
G2 X-4.179 Y22.563 R1.669
X-2.51 Y24.231 R1.669
G1 X52.51
G3 X54.178 Y25.899 R1.669
X52.51 Y27.568 R1.669
G1 X52.442
X-2.442
G2 X-4.11 Y29.236 R1.669
X-2.442 Y30.905 R1.669
G1 X0.895
X49.105
G3 X50.773 Y32.574 R1.668
X49.105 Y34.242 R1.668
G1 X45.768
X4.232
X4.145 Z0.008
X4.061 Z0.03
X3.982 Z0.067
X3.911 Z0.117
X3.849 Z0.179
X3.799 Z0.25
X3.762 Z0.329
X3.74 Z0.413
X3.732 Z0.5
G0 Z5.
X3.947 Y37.579
G1 Z0.5 F333.
X3.939 Z0.413 F1000.
X3.917 Z0.329
X3.88 Z0.25
X3.83 Z0.179
X3.768 Z0.117
X3.697 Z0.067
X3.618 Z0.03
X3.534 Z0.008
X3.447 Z0.
X-2.51
X7.569
X42.431
X46.553
X52.51
G3 X54.178 Y39.248 R1.668
X52.51 Y40.916 R1.668
G1 X43.216
X39.094
X10.906
X6.784
X-2.51
G2 X-4.178 Y42.584 R1.668
X-2.51 Y44.253 R1.668
G1 X10.121
X14.243
X35.757
X39.879
X52.51
G3 X54.178 Y45.922 R1.668
X52.51 Y47.59 R1.668
G1 X36.632
X32.42
X17.58
X13.368
X-2.51
X-2.597 Z0.008
X-2.681 Z0.03
X-2.76 Z0.067
X-2.831 Z0.117
X-2.893 Z0.179
X-2.943 Z0.25
X-2.98 Z0.329
X-3.002 Z0.413
X-3.01 Z0.5
G0 Z15.

(2D POCKET8)
G55
G0 X-3.401 Y20.17
Z15.
Z5.
G1 Z-1.5 F333.
X-3.396 Y20.165 Z-1.587 F1000.
X-3.38 Y20.149 Z-1.671
X-3.354 Y20.123 Z-1.75
X-3.318 Y20.088 Z-1.821
X-3.275 Y20.044 Z-1.883
X-3.224 Y19.993 Z-1.933
X-3.168 Y19.938 Z-1.97
X-3.109 Y19.878 Z-1.992
X-3.047 Y19.817 Z-2.
X-2.399 Y19.168
X19.163 Y-2.394
X19.203 Y-2.426
X19.247 Y-2.449
X19.296 Y-2.463
X21.264 Y-2.819
G3 X21.554 Y-2.618 R0.25
X21.485 Y-2.397 R0.25
G1 X-2.397 Y21.486
G3 X-2.751 R0.25
X-2.823 Y21.289 R0.25
G1 X-2.47 Y16.947
X-2.458 Y16.89
X-2.433 Y16.837
X-2.397 Y16.791
X12.626 Y1.768
X16.787 Y-2.393
X16.835 Y-2.431
X16.89 Y-2.455
X16.95 Y-2.466
X23.672 Y-2.824
G3 X23.935 Y-2.587 R0.25
X23.862 Y-2.397 R0.25
G1 X-1.768 Y23.232
X-2.394 Y23.859
X-2.454 Y23.91
X-2.802 Y24.162
X-2.872 Y24.213 Z-1.992
X-2.94 Y24.263 Z-1.97
X-3.004 Y24.309 Z-1.933
X-3.062 Y24.351 Z-1.883
X-3.111 Y24.387 Z-1.821
X-3.152 Y24.417 Z-1.75
X-3.182 Y24.438 Z-1.671
X-3.2 Y24.452 Z-1.587
X-3.206 Y24.456 Z-1.5
G0 Z15.
X20.159 Y53.39
Z5.
G1 Z-1.5 F333.
X20.154 Y53.385 Z-1.587 F1000.
X20.138 Y53.369 Z-1.671
X20.112 Y53.343 Z-1.75
X20.076 Y53.307 Z-1.821
X20.033 Y53.264 Z-1.883
X19.982 Y53.213 Z-1.933
X19.927 Y53.157 Z-1.97
X19.867 Y53.098 Z-1.992
X19.806 Y53.036 Z-2.
X19.168 Y52.399
X-2.394 Y30.837
X-2.426 Y30.797
X-2.449 Y30.753
X-2.463 Y30.704
X-2.819 Y28.736
G3 X-2.618 Y28.446 R0.25
X-2.397 Y28.515 R0.25
G1 X21.486 Y52.397
G3 Y52.751 R0.25
X21.289 Y52.823 R0.25
G1 X16.947 Y52.47
X16.89 Y52.458
X16.837 Y52.433
X16.791 Y52.397
X1.768 Y37.374
X-2.393 Y33.213
X-2.431 Y33.165
X-2.455 Y33.11
X-2.466 Y33.05
X-2.824 Y26.328
G3 X-2.587 Y26.065 R0.25
X-2.397 Y26.138 R0.25
G1 X23.232 Y51.768
X23.859 Y52.394
X23.91 Y52.454
X24.162 Y52.802
X24.213 Y52.872 Z-1.992
X24.263 Y52.94 Z-1.97
X24.309 Y53.004 Z-1.933
X24.351 Y53.062 Z-1.883
X24.387 Y53.111 Z-1.821
X24.417 Y53.152 Z-1.75
X24.438 Y53.182 Z-1.671
X24.452 Y53.2 Z-1.587
X24.456 Y53.206 Z-1.5
G0 Z15.
X53.395 Y29.835
Z5.
G1 Z-1.5 F333.
X53.39 Y29.841 Z-1.587 F1000.
X53.374 Y29.857 Z-1.671
X53.348 Y29.883 Z-1.75
X53.313 Y29.918 Z-1.821
X53.269 Y29.962 Z-1.883
X53.219 Y30.012 Z-1.933
X53.163 Y30.068 Z-1.97
X53.103 Y30.127 Z-1.992
X53.042 Y30.189 Z-2.
X52.399 Y30.832
X30.837 Y52.394
X30.797 Y52.426
X30.753 Y52.45
X30.704 Y52.463
X28.736 Y52.819
G3 X28.446 Y52.618 R0.25
X28.515 Y52.397 R0.25
G1 X52.397 Y28.514
G3 X52.751 R0.25
X52.823 Y28.711 R0.25
G1 X52.47 Y33.053
X52.458 Y33.11
X52.433 Y33.163
X52.397 Y33.209
X48.232 Y37.374
X37.374 Y48.232
X33.213 Y52.393
X33.165 Y52.431
X33.11 Y52.455
X33.05 Y52.466
X26.328 Y52.824
G3 X26.065 Y52.587 R0.25
X26.138 Y52.397 R0.25
G1 X51.768 Y26.768
X52.394 Y26.141
X52.454 Y26.09
X52.802 Y25.838
X52.872 Y25.787 Z-1.992
X52.94 Y25.737 Z-1.97
X53.004 Y25.691 Z-1.933
X53.062 Y25.649 Z-1.883
X53.111 Y25.613 Z-1.821
X53.152 Y25.583 Z-1.75
X53.182 Y25.562 Z-1.671
X53.2 Y25.548 Z-1.587
X53.206 Y25.544 Z-1.5
G0 Z15.
X29.83 Y-3.401
Z5.
G1 Z-1.5 F333.
X29.835 Y-3.396 Z-1.587 F1000.
X29.851 Y-3.38 Z-1.671
X29.877 Y-3.354 Z-1.75
X29.912 Y-3.318 Z-1.821
X29.956 Y-3.275 Z-1.883
X30.007 Y-3.224 Z-1.933
X30.062 Y-3.168 Z-1.97
X30.122 Y-3.109 Z-1.992
X30.183 Y-3.047 Z-2.
X30.832 Y-2.399
X52.394 Y19.164
X52.426 Y19.203
X52.45 Y19.247
X52.463 Y19.296
X52.819 Y21.264
G3 X52.618 Y21.554 R0.25
X52.397 Y21.485 R0.25
G1 X28.514 Y-2.397
G3 Y-2.751 R0.25
X28.711 Y-2.823 R0.25
G1 X33.053 Y-2.47
X33.11 Y-2.458
X33.163 Y-2.433
X33.209 Y-2.397
X37.374 Y1.768
X48.232 Y12.626
X52.393 Y16.787
X52.431 Y16.835
X52.455 Y16.89
X52.466 Y16.95
X52.824 Y23.672
G3 X52.587 Y23.935 R0.25
X52.397 Y23.862 R0.25
G1 X26.768 Y-1.768
X26.141 Y-2.394
X26.09 Y-2.454
X25.838 Y-2.802
X25.787 Y-2.872 Z-1.992
X25.737 Y-2.94 Z-1.97
X25.691 Y-3.004 Z-1.933
X25.649 Y-3.062 Z-1.883
X25.613 Y-3.111 Z-1.821
X25.583 Y-3.152 Z-1.75
X25.562 Y-3.182 Z-1.671
X25.548 Y-3.2 Z-1.587
X25.544 Y-3.206 Z-1.5
G0 Z15.

M9
G53 G0 Z0.
M30
